luts/HLG to VLog (Averaged 4200K) [PRE].cube
TITLE "GH5 HLG to VLog (Averaged 4200K) [PRE]"
LUT_3D_SIZE 5
0.1180 0.1221 0.1115
0.4154 0.1302 0.1713
0.5902 0.1633 0.2295
0.7333 0.1960 0.2776
0.8726 0.2215 0.3194
0.1003 0.3776 0.2129
0.3795 0.3845 0.1315
0.5619 0.3768 0.2166
0.7242 0.3756 0.2739
0.8861 0.3723 0.3158
0.1132 0.5333 0.2837
0.3478 0.5250 0.2444
0.5151 0.5227 0.1608
0.6445 0.5181 0.2191
0.8167 0.5019 0.2736
0.1036 0.6375 0.3198
0.2915 0.6370 0.2605
0.4817 0.6253 0.2553
0.6215 0.6299 0.1678
0.7481 0.6269 0.2098
0.0886 0.7383 0.3503
0.2622 0.7393 0.2905
0.4370 0.7346 0.2649
0.5846 0.7350 0.2134
0.7302 0.7374 0.1373
0.1392 0.1482 0.3531
0.4215 0.1603 0.3708
0.5843 0.1899 0.3801
0.7279 0.2212 0.4119
0.8669 0.2438 0.4437
0.1188 0.3885 0.4223
0.3874 0.3877 0.3887
0.5382 0.3901 0.4126
0.6614 0.4015 0.4411
0.7862 0.4066 0.4664
0.1163 0.5375 0.4591
0.3768 0.5196 0.4397
0.5214 0.5234 0.4041
0.6440 0.5223 0.4412
0.7803 0.5156 0.4640
0.1099 0.6404 0.4794
0.3628 0.6196 0.4683
0.5103 0.6254 0.4421
0.6287 0.6321 0.4046
0.7389 0.6351 0.4260
0.0958 0.7406 0.5008
0.3468 0.7202 0.4971
0.4789 0.7306 0.4549
0.6141 0.7329 0.4332
0.7352 0.7388 0.3790
0.1642 0.1734 0.4892
0.4100 0.1949 0.5140
0.6124 0.2159 0.5392
0.7444 0.2419 0.5368
0.8724 0.2629 0.5553
0.1716 0.4008 0.5803
0.4018 0.4052 0.5223
0.5487 0.4124 0.5247
0.6580 0.4169 0.5321
0.7751 0.4188 0.5513
0.1418 0.5428 0.5934
0.3787 0.5270 0.5347
0.5251 0.5247 0.5260
0.6425 0.5270 0.5480
0.7582 0.5240 0.5629
0.1047 0.6487 0.6028
0.3662 0.6221 0.5756
0.5129 0.6264 0.5560
0.6317 0.6329 0.5231
0.7615 0.6315 0.5591
0.0938 0.7467 0.6236
0.3513 0.7220 0.6099
0.4976 0.7268 0.5897
0.6212 0.7359 0.5556
0.7414 0.7436 0.5105
0.1859 0.1960 0.6006
0.4073 0.2244 0.6157
0.5999 0.2487 0.6566
0.7707 0.2610 0.6768
0.8938 0.2799 0.6746
0.2048 0.4141 0.6901
0.4153 0.4230 0.6192
0.5631 0.4336 0.6272
0.6791 0.4329 0.6328
0.7859 0.4316 0.6379
0.1887 0.5483 0.7264
0.3995 0.5382 0.6476
0.5389 0.5393 0.6211
0.6484 0.5404 0.6264
0.7529 0.5359 0.6379
0.1399 0.6506 0.7176
0.3782 0.6309 0.6617
0.5174 0.6334 0.6474
0.6353 0.6341 0.6366
0.7586 0.6358 0.6589
0.0910 0.7572 0.7352
0.3497 0.7301 0.6984
0.4969 0.7286 0.6869
0.6208 0.7396 0.6667
0.7443 0.7462 0.6295
0.2046 0.2166 0.7122
0.4157 0.2491 0.7220
0.6029 0.2716 0.7681
0.7533 0.2923 0.7750
0.9170 0.2948 0.8020
0.2297 0.4282 0.7988
0.4307 0.4377 0.7184
0.5724 0.4474 0.7205
0.6947 0.4487 0.7341
0.8065 0.4443 0.7388
0.2122 0.5585 0.8384
0.4127 0.5510 0.7470
0.5529 0.5529 0.7222
0.6707 0.5550 0.7284
0.7733 0.5502 0.7314
0.1748 0.6574 0.8453
0.3924 0.6433 0.7780
0.5295 0.6481 0.7539
0.6505 0.6512 0.7421
0.7626 0.6498 0.7422
0.1350 0.7571 0.8412
0.3728 0.7364 0.7840
0.5093 0.7372 0.7661
0.6247 0.7461 0.7581
0.7487 0.7489 0.7505
