luts/HLG to VLog (Averaged 4200K) [PRE].cube
TITLE "GH5 HLG to VLog (Averaged 4200K) [PRE]"
LUT_3D_SIZE 9
0.1180 0.1221 0.1115
0.2835 0.1209 0.1402
0.4154 0.1302 0.1713
0.5126 0.1457 0.2017
0.5902 0.1633 0.2295
0.6619 0.1803 0.2544
0.7333 0.1960 0.2776
0.8034 0.2096 0.2992
0.8726 0.2215 0.3194
0.1033 0.2605 0.1655
0.2663 0.2687 0.1217
0.3998 0.2666 0.1648
0.5058 0.2646 0.1996
0.5966 0.2715 0.2289
0.6793 0.2794 0.2568
0.7562 0.2871 0.2807
0.8279 0.2953 0.3040
0.8974 0.3025 0.3250
0.1003 0.3776 0.2129
0.2507 0.3793 0.1764
0.3795 0.3845 0.1315
0.4657 0.3849 0.1642
0.5619 0.3768 0.2166
0.6444 0.3751 0.2506
0.7242 0.3756 0.2739
0.8062 0.3745 0.2959
0.8861 0.3723 0.3158
0.1065 0.4666 0.2529
0.2344 0.4672 0.2134
0.3656 0.4614 0.2074
0.4572 0.4636 0.1476
0.5242 0.4635 0.1822
0.5985 0.4593 0.2121
0.6921 0.4495 0.2556
0.7731 0.4435 0.2840
0.8486 0.4393 0.3026
0.1132 0.5333 0.2837
0.2277 0.5328 0.2485
0.3478 0.5250 0.2444
0.4410 0.5213 0.2218
0.5151 0.5227 0.1608
0.5762 0.5209 0.1890
0.6445 0.5181 0.2191
0.7243 0.5122 0.2371
0.8167 0.5019 0.2736
0.1115 0.5878 0.3051
0.2178 0.5840 0.2730
0.3170 0.5827 0.2523
0.4222 0.5744 0.2561
0.4993 0.5739 0.2189
0.5680 0.5763 0.1678
0.6292 0.5746 0.1897
0.6939 0.5729 0.2195
0.7707 0.5684 0.2346
0.1036 0.6375 0.3198
0.2070 0.6334 0.2938
0.2915 0.6370 0.2605
0.4019 0.6273 0.2696
0.4817 0.6253 0.2553
0.5530 0.6273 0.2090
0.6215 0.6299 0.1678
0.6848 0.6288 0.1823
0.7481 0.6269 0.2098
0.0958 0.6877 0.3352
0.1966 0.6837 0.3123
0.2731 0.6893 0.2729
0.3725 0.6834 0.2709
0.4597 0.6794 0.2623
0.5330 0.6792 0.2400
0.6048 0.6819 0.1876
0.6762 0.6840 0.1547
0.7407 0.6838 0.1624
0.0886 0.7383 0.3503
0.1865 0.7351 0.3290
0.2622 0.7393 0.2905
0.3446 0.7395 0.2705
0.4370 0.7346 0.2649
0.5117 0.7345 0.2439
0.5846 0.7350 0.2134
0.6582 0.7370 0.1616
0.7302 0.7374 0.1373
0.1276 0.1336 0.2480
0.2859 0.1377 0.2539
0.4091 0.1464 0.2708
0.5027 0.1601 0.2888
0.5804 0.1769 0.3070
0.6539 0.1941 0.3270
0.7269 0.2095 0.3474
0.7977 0.2228 0.3669
0.8663 0.2336 0.3846
0.1121 0.2687 0.2885
0.2705 0.2705 0.2707
0.3981 0.2710 0.2921
0.4878 0.2780 0.3093
0.5613 0.2900 0.3299
0.6294 0.3005 0.3494
0.6966 0.3100 0.3682
0.7638 0.3188 0.3864
0.8287 0.3266 0.4034
0.1025 0.3818 0.3297
0.2559 0.3790 0.3067
0.3823 0.3845 0.2765
0.4681 0.3823 0.2995
0.5374 0.3827 0.3195
0.6138 0.3843 0.3424
0.6972 0.3861 0.3667
0.7721 0.3877 0.3851
0.8395 0.3889 0.4007
0.1095 0.4676 0.3601
0.2555 0.4615 0.3410
0.3770 0.4607 0.3258
0.4602 0.4634 0.2976
0.5120 0.4667 0.3081
0.5897 0.4609 0.3418
0.6663 0.4572 0.3631
0.7430 0.4537 0.3776
0.8194 0.4492 0.3916
0.1177 0.5342 0.3815
0.2570 0.5243 0.3672
0.3632 0.5236 0.3490
0.4580 0.5189 0.3538
0.5177 0.5231 0.3161
0.5657 0.5256 0.3312
0.6314 0.5243 0.3438
0.7217 0.5140 0.3678
0.7975 0.5086 0.3869
0.1168 0.5888 0.3952
0.2519 0.5762 0.3847
0.3458 0.5763 0.3613
0.4465 0.5720 0.3707
0.5138 0.5723 0.3623
0.5703 0.5771 0.3178
0.6241 0.5789 0.3337
0.6861 0.5779 0.3442
0.7623 0.5728 0.3486
0.1096 0.6387 0.4057
0.2447 0.6261 0.4002
0.3337 0.6259 0.3776
0.4189 0.6271 0.3677
0.5000 0.6246 0.3678
0.5645 0.6267 0.3429
0.6247 0.6311 0.3053
0.6809 0.6319 0.3149
0.7403 0.6311 0.3324
0.1015 0.6881 0.4169
0.2371 0.6762 0.4153
0.3240 0.6760 0.3944
0.3962 0.6810 0.3698
0.4817 0.6778 0.3683
0.5499 0.6786 0.3538
0.6157 0.6817 0.3180
0.6797 0.6853 0.2878
0.7371 0.6861 0.2937
0.0941 0.7385 0.4288
0.2299 0.7270 0.4302
0.3144 0.7264 0.4101
0.3789 0.7335 0.3774
0.4599 0.7324 0.3700
0.5342 0.7319 0.3580
0.6012 0.7335 0.3371
0.6678 0.7360 0.2953
0.7327 0.7377 0.2723
0.1392 0.1482 0.3531
0.2950 0.1539 0.3597
0.4215 0.1603 0.3708
0.5118 0.1728 0.3722
0.5843 0.1899 0.3801
0.6557 0.2066 0.3947
0.7279 0.2212 0.4119
0.7984 0.2337 0.4284
0.8669 0.2438 0.4437
0.1293 0.2788 0.3990
0.2794 0.2814 0.3774
0.4008 0.2845 0.3802
0.4848 0.2923 0.3862
0.5551 0.3034 0.3987
0.6220 0.3135 0.4126
0.6885 0.3225 0.4276
0.7549 0.3298 0.4426
0.8186 0.3361 0.4569
0.1188 0.3885 0.4223
0.2572 0.3849 0.3929
0.3874 0.3877 0.3887
0.4723 0.3859 0.3999
0.5382 0.3901 0.4126
0.5979 0.3961 0.4253
0.6614 0.4015 0.4411
0.7256 0.4046 0.4548
0.7862 0.4066 0.4664
0.1087 0.4740 0.4437
0.2589 0.4630 0.4261
0.3782 0.4614 0.4137
0.4634 0.4653 0.3917
0.5279 0.4647 0.4093
0.5913 0.4636 0.4266
0.6541 0.4643 0.4393
0.7265 0.4616 0.4532
0.7932 0.4591 0.4634
0.1163 0.5375 0.4591
0.2618 0.5247 0.4474
0.3768 0.5196 0.4397
0.4606 0.5207 0.4239
0.5214 0.5234 0.4041
0.5713 0.5264 0.4141
0.6440 0.5223 0.4412
0.7130 0.5193 0.4597
0.7803 0.5156 0.4640
0.1156 0.5902 0.4697
0.2583 0.5769 0.4612
0.3705 0.5703 0.4542
0.4524 0.5724 0.4399
0.5179 0.5736 0.4320
0.5758 0.5774 0.4103
0.6239 0.5813 0.4213
0.6877 0.5808 0.4345
0.7680 0.5729 0.4552
0.1099 0.6404 0.4794
0.2518 0.6266 0.4740
0.3628 0.6196 0.4683
0.4378 0.6239 0.4478
0.5103 0.6254 0.4421
0.5707 0.6278 0.4302
0.6287 0.6321 0.4046
0.6805 0.6351 0.4147
0.7389 0.6351 0.4260
0.1029 0.6903 0.4897
0.2441 0.6764 0.4866
0.3549 0.6700 0.4829
0.4265 0.6738 0.4615
0.4936 0.6777 0.4477
0.5616 0.6791 0.4382
0.6237 0.6826 0.4159
0.6831 0.6868 0.3907
0.7354 0.6885 0.3965
0.0958 0.7406 0.5008
0.2366 0.7268 0.4997
0.3468 0.7202 0.4971
0.4179 0.7238 0.4773
0.4789 0.7306 0.4549
0.5510 0.7307 0.4483
0.6141 0.7329 0.4332
0.6757 0.7361 0.4005
0.7352 0.7388 0.3790
0.1520 0.1612 0.4297
0.2946 0.1705 0.4327
0.4151 0.1785 0.4515
0.5254 0.1871 0.4625
0.5986 0.2018 0.4576
0.6651 0.2183 0.4611
0.7333 0.2322 0.4729
0.8006 0.2440 0.4864
0.8672 0.2535 0.5004
0.1484 0.2889 0.4786
0.2877 0.2940 0.4573
0.4082 0.3021 0.4587
0.4989 0.3074 0.4639
0.5641 0.3146 0.4617
0.6254 0.3238 0.4690
0.6889 0.3319 0.4813
0.7537 0.3383 0.4941
0.8167 0.3435 0.5058
0.1500 0.3936 0.5136
0.2730 0.3935 0.4767
0.3934 0.3950 0.4605
0.4770 0.3969 0.4634
0.5369 0.4003 0.4689
0.5955 0.4055 0.4781
0.6560 0.4097 0.4883
0.7174 0.4116 0.4989
0.7771 0.4128 0.5093
0.1318 0.4763 0.5191
0.2675 0.4683 0.4884
0.3793 0.4659 0.4728
0.4673 0.4671 0.4682
0.5291 0.4668 0.4771
0.5878 0.4685 0.4884
0.6461 0.4702 0.4995
0.7046 0.4699 0.5084
0.7635 0.4688 0.5165
0.1159 0.5431 0.5289
0.2604 0.5281 0.5058
0.3775 0.5210 0.4958
0.4612 0.5213 0.4870
0.5224 0.5241 0.4697
0.5833 0.5244 0.4856
0.6488 0.5228 0.5028
0.7110 0.5217 0.5130
0.7734 0.5187 0.5178
0.1120 0.5944 0.5342
0.2563 0.5787 0.5195
0.3738 0.5708 0.5138
0.4563 0.5716 0.5043
0.5189 0.5747 0.4861
0.5766 0.5779 0.4710
0.6284 0.5811 0.4811
0.7041 0.5766 0.5083
0.7706 0.5739 0.5232
0.1077 0.6434 0.5429
0.2515 0.6283 0.5335
0.3671 0.6201 0.5287
0.4490 0.6212 0.5184
0.5111 0.6264 0.4975
0.5721 0.6287 0.4857
0.6313 0.6324 0.4658
0.6810 0.6366 0.4770
0.7448 0.6361 0.4906
0.1019 0.6929 0.5537
0.2450 0.6784 0.5474
0.3590 0.6702 0.5434
0.4399 0.6707 0.5331
0.5016 0.6771 0.5105
0.5659 0.6803 0.5001
0.6270 0.6839 0.4845
0.6861 0.6881 0.4608
0.7366 0.6908 0.4696
0.0956 0.7432 0.5652
0.2377 0.7285 0.5608
0.3506 0.7204 0.5577
0.4318 0.7214 0.5482
0.4943 0.7273 0.5269
0.5560 0.7319 0.5122
0.6206 0.7337 0.5022
0.6808 0.7376 0.4746
0.7384 0.7411 0.4536
0.1642 0.1734 0.4892
0.2939 0.1854 0.4887
0.4100 0.1949 0.5140
0.5108 0.2085 0.5239
0.6124 0.2159 0.5392
0.6803 0.2288 0.5351
0.7444 0.2419 0.5368
0.8084 0.2533 0.5444
0.8724 0.2629 0.5553
0.1676 0.2977 0.5417
0.2980 0.3060 0.5153
0.4091 0.3166 0.5138
0.4983 0.3239 0.5262
0.5770 0.3272 0.5312
0.6376 0.3338 0.5298
0.6964 0.3410 0.5337
0.7573 0.3466 0.5433
0.8177 0.3513 0.5535
0.1716 0.4008 0.5803
0.2869 0.4028 0.5390
0.4018 0.4052 0.5223
0.4863 0.4092 0.5226
0.5487 0.4124 0.5247
0.6028 0.4147 0.5255
0.6580 0.4169 0.5321
0.7164 0.4180 0.5418
0.7751 0.4188 0.5513
0.1658 0.4781 0.5938
0.2893 0.4732 0.5571
0.3885 0.4730 0.5291
0.4727 0.4736 0.5197
0.5321 0.4746 0.5216
0.5855 0.4760 0.5289
0.6412 0.4765 0.5383
0.6981 0.4753 0.5457
0.7560 0.4740 0.5542
0.1418 0.5428 0.5934
0.2734 0.5311 0.5600
0.3787 0.5270 0.5347
0.4628 0.5250 0.5316
0.5251 0.5247 0.5260
0.5828 0.5259 0.5363
0.6425 0.5270 0.5480
0.7007 0.5259 0.5573
0.7582 0.5240 0.5629
0.1145 0.5989 0.5971
0.2568 0.5833 0.5722
0.3732 0.5742 0.5572
0.4582 0.5728 0.5535
0.5193 0.5750 0.5416
0.5772 0.5785 0.5262
0.6396 0.5783 0.5424
0.7069 0.5766 0.5602
0.7683 0.5748 0.5668
0.1047 0.6487 0.6028
0.2495 0.6322 0.5850
0.3662 0.6221 0.5756
0.4509 0.6218 0.5713
0.5129 0.6264 0.5560
0.5724 0.6298 0.5389
0.6317 0.6329 0.5231
0.6847 0.6363 0.5337
0.7615 0.6315 0.5591
0.0992 0.6974 0.6121
0.2436 0.6815 0.6002
0.3590 0.6718 0.5933
0.4415 0.6708 0.5875
0.5052 0.6763 0.5730
0.5650 0.6823 0.5518
0.6275 0.6850 0.5397
0.6882 0.6891 0.5174
0.7382 0.6923 0.5280
0.0938 0.7467 0.6236
0.2370 0.7310 0.6148
0.3513 0.7220 0.6099
0.4331 0.7215 0.6038
0.4976 0.7268 0.5897
0.5575 0.7328 0.5672
0.6212 0.7359 0.5556
0.6829 0.7396 0.5341
0.7414 0.7436 0.5105
0.1755 0.1849 0.5451
0.2964 0.1985 0.5428
0.4065 0.2105 0.5651
0.5104 0.2222 0.5883
0.5972 0.2374 0.5919
0.6931 0.2405 0.6096
0.7591 0.2512 0.6077
0.8202 0.2623 0.6077
0.8818 0.2715 0.6125
0.1847 0.3068 0.6002
0.3085 0.3167 0.5678
0.4117 0.3285 0.5638
0.5008 0.3365 0.5814
0.5742 0.3433 0.5850
0.6499 0.3445 0.5936
0.7093 0.3496 0.5935
0.7667 0.3544 0.5955
0.8240 0.3584 0.6014
0.1895 0.4076 0.6356
0.3012 0.4105 0.5934
0.4083 0.4141 0.5727
0.4902 0.4206 0.5702
0.5556 0.4243 0.5766
0.6144 0.4244 0.5791
0.6680 0.4245 0.5805
0.7224 0.4248 0.5849
0.7778 0.4253 0.5929
0.1861 0.4838 0.6596
0.3022 0.4805 0.6161
0.3899 0.4824 0.5741
0.4796 0.4816 0.5690
0.5419 0.4829 0.5698
0.5951 0.4840 0.5740
0.6466 0.4831 0.5775
0.6994 0.4812 0.5842
0.7551 0.4796 0.5930
0.1706 0.5437 0.6602
0.2937 0.5347 0.6226
0.3923 0.5307 0.5933
0.4693 0.5316 0.5801
0.5315 0.5317 0.5723
0.5849 0.5327 0.5741
0.6398 0.5336 0.5820
0.6950 0.5322 0.5920
0.7513 0.5297 0.5996
0.1423 0.5974 0.6561
0.2738 0.5852 0.6231
0.3806 0.5788 0.5999
0.4602 0.5786 0.5912
0.5221 0.5786 0.5872
0.5801 0.5793 0.5811
0.6385 0.5803 0.5912
0.6990 0.5809 0.6027
0.7579 0.5793 0.6107
0.1113 0.6523 0.6613
0.2523 0.6368 0.6352
0.3669 0.6269 0.6179
0.4505 0.6256 0.6100
0.5147 0.6271 0.6085
0.5731 0.6301 0.5961
0.6323 0.6336 0.5801
0.6965 0.6332 0.5972
0.7650 0.6311 0.6138
0.0975 0.7029 0.6696
0.2420 0.6865 0.6494
0.3576 0.6755 0.6367
0.4407 0.6728 0.6308
0.5061 0.6764 0.6263
0.5663 0.6826 0.6110
0.6274 0.6861 0.5928
0.6882 0.6894 0.5764
0.7426 0.6923 0.5869
0.0904 0.7520 0.6793
0.2349 0.7353 0.6645
0.3503 0.7249 0.6558
0.4331 0.7230 0.6505
0.4976 0.7265 0.6435
0.5588 0.7329 0.6285
0.6187 0.7382 0.6066
0.6828 0.7413 0.5924
0.7428 0.7451 0.5696
0.1859 0.1960 0.6006
0.3013 0.2108 0.5976
0.4073 0.2244 0.6157
0.5087 0.2365 0.6426
0.5999 0.2487 0.6566
0.6789 0.2600 0.6577
0.7707 0.2610 0.6768
0.8342 0.2709 0.6753
0.8938 0.2799 0.6746
0.1991 0.3163 0.6567
0.3178 0.3266 0.6201
0.4160 0.3385 0.6143
0.5022 0.3474 0.6296
0.5817 0.3534 0.6439
0.6458 0.3595 0.6416
0.7210 0.3584 0.6538
0.7791 0.3618 0.6537
0.8340 0.3651 0.6541
0.2048 0.4141 0.6901
0.3128 0.4186 0.6439
0.4153 0.4230 0.6192
0.4947 0.4296 0.6161
0.5631 0.4336 0.6272
0.6197 0.4351 0.6276
0.6791 0.4329 0.6328
0.7335 0.4317 0.6351
0.7859 0.4316 0.6379
0.2016 0.4898 0.7174
0.3127 0.4878 0.6666
0.4008 0.4884 0.6249
0.4856 0.4887 0.6155
0.5482 0.4913 0.6160
0.6049 0.4922 0.6219
0.6571 0.4907 0.6249
0.7087 0.4877 0.6283
0.7608 0.4857 0.6330
0.1887 0.5483 0.7264
0.3054 0.5411 0.6840
0.3995 0.5382 0.6476
0.4738 0.5397 0.6268
0.5389 0.5393 0.6211
0.5948 0.5398 0.6213
0.6484 0.5404 0.6264
0.7003 0.5386 0.6313
0.7529 0.5359 0.6379
0.1664 0.5994 0.7204
0.2908 0.5893 0.6835
0.3919 0.5840 0.6580
0.4713 0.5833 0.6483
0.5287 0.5858 0.6364
0.5860 0.5865 0.6279
0.6406 0.5872 0.6297
0.6965 0.5880 0.6373
0.7525 0.5859 0.6469
0.1399 0.6506 0.7176
0.2719 0.6379 0.6847
0.3782 0.6309 0.6617
0.4555 0.6316 0.6499
0.5174 0.6334 0.6474
0.5756 0.6336 0.6422
0.6353 0.6341 0.6366
0.6950 0.6354 0.6466
0.7586 0.6358 0.6589
0.1070 0.7060 0.7254
0.2471 0.6907 0.6982
0.3600 0.6804 0.6792
0.4414 0.6779 0.6696
0.5061 0.6807 0.6648
0.5679 0.6831 0.6644
0.6279 0.6865 0.6513
0.6886 0.6900 0.6350
0.7541 0.6894 0.6512
0.0910 0.7572 0.7352
0.2345 0.7408 0.7130
0.3497 0.7301 0.6984
0.4323 0.7270 0.6911
0.4969 0.7286 0.6869
0.5590 0.7328 0.6819
0.6208 0.7396 0.6667
0.6828 0.7435 0.6478
0.7443 0.7462 0.6295
0.1957 0.2067 0.6565
0.3073 0.2227 0.6537
0.4109 0.2375 0.6682
0.5089 0.2496 0.6939
0.6032 0.2600 0.7163
0.6789 0.2720 0.7173
0.7580 0.2786 0.7222
0.8455 0.2798 0.7414
0.9066 0.2875 0.7392
0.2117 0.3257 0.7125
0.3262 0.3359 0.6731
0.4209 0.3476 0.6661
0.5049 0.3567 0.6774
0.5850 0.3634 0.6953
0.6546 0.3680 0.7009
0.7162 0.3718 0.6982
0.7898 0.3692 0.7116
0.8457 0.3718 0.7109
0.2180 0.4213 0.7450
0.3248 0.4259 0.6959
0.4235 0.4309 0.6683
0.4998 0.4369 0.6642
0.5680 0.4411 0.6741
0.6313 0.4420 0.6831
0.6827 0.4431 0.6784
0.7442 0.4392 0.6868
0.7968 0.4380 0.6882
0.2145 0.4959 0.7697
0.3244 0.4936 0.7184
0.4098 0.4956 0.6747
0.4927 0.4954 0.6648
0.5557 0.4988 0.6646
0.6155 0.4993 0.6733
0.6661 0.4986 0.6726
0.7199 0.4952 0.6770
0.7714 0.4924 0.6799
0.2015 0.5535 0.7854
0.3130 0.5477 0.7370
0.4057 0.5457 0.6970
0.4815 0.5463 0.6754
0.5460 0.5461 0.6699
0.6033 0.5477 0.6702
0.6592 0.5477 0.6758
0.7110 0.5460 0.6788
0.7622 0.5425 0.6820
0.1825 0.6041 0.7865
0.3005 0.5953 0.7465
0.3983 0.5907 0.7159
0.4734 0.5924 0.6964
0.5345 0.5944 0.6848
0.5939 0.5942 0.6776
0.6507 0.5949 0.6781
0.7053 0.5952 0.6827
0.7575 0.5922 0.6869
0.1608 0.6529 0.7805
0.2853 0.6427 0.7444
0.3871 0.6369 0.7188
0.4640 0.6372 0.7082
0.5298 0.6386 0.7067
0.5831 0.6410 0.6933
0.6414 0.6420 0.6843
0.6974 0.6427 0.6862
0.7555 0.6424 0.6933
0.1369 0.7042 0.7801
0.2683 0.6913 0.7470
0.3742 0.6834 0.7232
0.4513 0.6826 0.7113
0.5118 0.6866 0.7060
0.5703 0.6899 0.7032
0.6306 0.6899 0.6986
0.6911 0.6905 0.6926
0.7542 0.6913 0.7027
0.1049 0.7592 0.7886
0.2438 0.7443 0.7605
0.3556 0.7347 0.7408
0.4353 0.7322 0.7308
0.4982 0.7337 0.7253
0.5594 0.7367 0.7218
0.6226 0.7406 0.7206
0.6840 0.7453 0.7114
0.7457 0.7473 0.6911
0.2046 0.2166 0.7122
0.3139 0.2338 0.7100
0.4157 0.2491 0.7220
0.5106 0.2610 0.7443
0.6029 0.2716 0.7681
0.6883 0.2793 0.7822
0.7533 0.2923 0.7750
0.8351 0.2947 0.7857
0.9170 0.2948 0.8020
0.2227 0.3345 0.7680
0.3340 0.3447 0.7261
0.4263 0.3561 0.7184
0.5084 0.3650 0.7258
0.5875 0.3721 0.7431
0.6619 0.3754 0.7569
0.7214 0.3805 0.7530
0.7850 0.3811 0.7541
0.8556 0.3782 0.7669
0.2297 0.4282 0.7988
0.3356 0.4326 0.7481
0.4307 0.4377 0.7184
0.5048 0.4433 0.7133
0.5724 0.4474 0.7205
0.6375 0.4485 0.7323
0.6947 0.4487 0.7341
0.7452 0.4487 0.7292
0.8065 0.4443 0.7388
0.2271 0.5010 0.8221
0.3338 0.4990 0.7694
0.4211 0.5005 0.7294
0.4987 0.5018 0.7159
0.5618 0.5046 0.7135
0.6223 0.5055 0.7207
0.6793 0.5040 0.7272
0.7259 0.5034 0.7218
0.7819 0.4995 0.7286
0.2122 0.5585 0.8384
0.3209 0.5534 0.7863
0.4127 0.5510 0.7470
0.4885 0.5518 0.7277
0.5529 0.5529 0.7222
0.6118 0.5551 0.7204
0.6707 0.5550 0.7284
0.7205 0.5535 0.7276
0.7733 0.5502 0.7314
0.1945 0.6085 0.8462
0.3073 0.6010 0.8009
0.4001 0.5982 0.7640
0.4754 0.5997 0.7429
0.5414 0.6012 0.7354
0.6019 0.6026 0.7349
0.6603 0.6033 0.7292
0.7166 0.6025 0.7348
0.7680 0.6002 0.7374
0.1748 0.6574 0.8453
0.2939 0.6485 0.8060
0.3924 0.6433 0.7780
0.4677 0.6435 0.7628
0.5295 0.6481 0.7539
0.5891 0.6513 0.7508
0.6505 0.6512 0.7421
0.7096 0.6510 0.7397
0.7626 0.6498 0.7422
0.1563 0.7064 0.8411
0.2810 0.6954 0.8044
0.3822 0.6890 0.7779
0.4577 0.6886 0.7658
0.5202 0.6916 0.7637
0.5820 0.6951 0.7659
0.6401 0.6985 0.7629
0.6986 0.6993 0.7508
0.7557 0.7000 0.7515
0.1350 0.7571 0.8412
0.2669 0.7443 0.8081
0.3728 0.7364 0.7840
0.4492 0.7349 0.7716
0.5093 0.7372 0.7661
0.5668 0.7412 0.7621
0.6247 0.7461 0.7581
0.6868 0.7482 0.7556
0.7487 0.7489 0.7505
