luts/HLG to VLog (Averaged 4200K) [PRE].cube
TITLE "GH5 HLG to VLog (Averaged 4200K) [PRE]"
LUT_3D_SIZE 33
0.1180 0.1221 0.1115
0.1612 0.1219 0.1142
0.2051 0.1208 0.1225
0.2457 0.1204 0.1323
0.2835 0.1209 0.1402
0.3201 0.1221 0.1476
0.3545 0.1242 0.1553
0.3860 0.1269 0.1634
0.4154 0.1302 0.1713
0.4427 0.1336 0.1792
0.4677 0.1374 0.1868
0.4908 0.1415 0.1944
0.5126 0.1457 0.2017
0.5332 0.1500 0.2091
0.5527 0.1545 0.2160
0.5717 0.1589 0.2229
0.5902 0.1633 0.2295
0.6082 0.1676 0.2359
0.6261 0.1719 0.2422
0.6440 0.1761 0.2483
0.6619 0.1803 0.2544
0.6796 0.1845 0.2603
0.6975 0.1885 0.2662
0.7155 0.1922 0.2719
0.7333 0.1960 0.2776
0.7510 0.1996 0.2832
0.7685 0.2031 0.2885
0.7860 0.2064 0.2939
0.8034 0.2096 0.2992
0.8209 0.2128 0.3045
0.8383 0.2159 0.3096
0.8555 0.2190 0.3148
0.8726 0.2215 0.3194
0.1134 0.1571 0.1221
0.1582 0.1581 0.1167
0.2024 0.1583 0.1209
0.2464 0.1571 0.1341
0.2856 0.1569 0.1448
0.3218 0.1580 0.1518
0.3566 0.1595 0.1592
0.3879 0.1614 0.1674
0.4178 0.1633 0.1752
0.4456 0.1657 0.1828
0.4709 0.1685 0.1903
0.4943 0.1718 0.1977
0.5163 0.1753 0.2050
0.5370 0.1791 0.2122
0.5566 0.1830 0.2192
0.5756 0.1871 0.2260
0.5942 0.1911 0.2327
0.6123 0.1953 0.2391
0.6303 0.1993 0.2454
0.6483 0.2033 0.2516
0.6662 0.2072 0.2576
0.6838 0.2110 0.2636
0.7017 0.2146 0.2694
0.7195 0.2180 0.2751
0.7371 0.2213 0.2806
0.7546 0.2244 0.2861
0.7719 0.2275 0.2914
0.7891 0.2305 0.2968
0.8063 0.2334 0.3020
0.8236 0.2362 0.3073
0.8407 0.2390 0.3125
0.8577 0.2418 0.3178
0.8747 0.2442 0.3226
0.1085 0.1928 0.1368
0.1537 0.1953 0.1223
0.1966 0.1976 0.1153
0.2319 0.2005 0.1151
0.2751 0.1984 0.1311
0.3173 0.1965 0.1474
0.3539 0.1967 0.1586
0.3865 0.1971 0.1678
0.4172 0.1969 0.1761
0.4458 0.1975 0.1834
0.4722 0.1989 0.1906
0.4968 0.2010 0.1979
0.5189 0.2039 0.2055
0.5406 0.2070 0.2127
0.5612 0.2105 0.2197
0.5811 0.2141 0.2266
0.6003 0.2178 0.2335
0.6190 0.2215 0.2403
0.6376 0.2252 0.2467
0.6559 0.2287 0.2531
0.6739 0.2322 0.2593
0.6918 0.2355 0.2652
0.7098 0.2385 0.2709
0.7276 0.2414 0.2765
0.7451 0.2443 0.2819
0.7625 0.2471 0.2873
0.7796 0.2498 0.2926
0.7967 0.2524 0.2980
0.8139 0.2551 0.3034
0.8310 0.2577 0.3088
0.8480 0.2602 0.3141
0.8649 0.2628 0.3195
0.8817 0.2649 0.3245
0.1053 0.2276 0.1518
0.1494 0.2306 0.1363
0.1944 0.2326 0.1229
0.2325 0.2348 0.1166
0.2639 0.2374 0.1162
0.3011 0.2369 0.1289
0.3438 0.2340 0.1486
0.3816 0.2322 0.1659
0.4114 0.2312 0.1760
0.4390 0.2304 0.1826
0.4655 0.2306 0.1886
0.4910 0.2316 0.1954
0.5156 0.2333 0.2026
0.5389 0.2356 0.2100
0.5612 0.2382 0.2176
0.5827 0.2410 0.2249
0.6032 0.2440 0.2321
0.6230 0.2470 0.2391
0.6426 0.2500 0.2459
0.6617 0.2528 0.2523
0.6795 0.2559 0.2589
0.6981 0.2585 0.2650
0.7166 0.2610 0.2708
0.7348 0.2634 0.2765
0.7526 0.2659 0.2821
0.7702 0.2683 0.2876
0.7877 0.2707 0.2931
0.8050 0.2731 0.2985
0.8224 0.2755 0.3040
0.8397 0.2778 0.3094
0.8568 0.2801 0.3148
0.8737 0.2823 0.3203
0.8905 0.2842 0.3252
0.1033 0.2605 0.1655
0.1465 0.2627 0.1546
0.1912 0.2640 0.1380
0.2298 0.2665 0.1289
0.2663 0.2687 0.1217
0.2951 0.2710 0.1206
0.3274 0.2711 0.1310
0.3626 0.2700 0.1461
0.3998 0.2666 0.1648
0.4311 0.2639 0.1784
0.4574 0.2630 0.1868
0.4819 0.2634 0.1933
0.5058 0.2646 0.1996
0.5294 0.2660 0.2066
0.5522 0.2677 0.2141
0.5747 0.2696 0.2215
0.5966 0.2715 0.2289
0.6180 0.2735 0.2364
0.6390 0.2755 0.2435
0.6595 0.2774 0.2503
0.6793 0.2794 0.2568
0.6990 0.2813 0.2630
0.7184 0.2832 0.2689
0.7375 0.2851 0.2748
0.7562 0.2871 0.2807
0.7746 0.2891 0.2866
0.7919 0.2914 0.2926
0.8100 0.2934 0.2983
0.8279 0.2953 0.3040
0.8457 0.2973 0.3095
0.8632 0.2992 0.3149
0.8804 0.3010 0.3203
0.8974 0.3025 0.3250
0.1012 0.2918 0.1779
0.1427 0.2936 0.1671
0.1846 0.2943 0.1530
0.2251 0.2955 0.1425
0.2637 0.2984 0.1339
0.2975 0.3008 0.1248
0.3252 0.3029 0.1246
0.3530 0.3043 0.1338
0.3824 0.3037 0.1454
0.4132 0.3015 0.1580
0.4476 0.2973 0.1763
0.4757 0.2953 0.1901
0.4994 0.2953 0.1989
0.5216 0.2962 0.2058
0.5428 0.2974 0.2123
0.5640 0.2985 0.2190
0.5853 0.2997 0.2257
0.6067 0.3008 0.2328
0.6283 0.3018 0.2399
0.6498 0.3029 0.2469
0.6712 0.3040 0.2537
0.6923 0.3051 0.2605
0.7133 0.3062 0.2670
0.7337 0.3075 0.2733
0.7535 0.3089 0.2793
0.7728 0.3104 0.2852
0.7918 0.3120 0.2910
0.8106 0.3135 0.2967
0.8293 0.3150 0.3024
0.8477 0.3164 0.3079
0.8660 0.3178 0.3134
0.8838 0.3190 0.3187
0.9004 0.3203 0.3238
0.0992 0.3219 0.1892
0.1392 0.3236 0.1780
0.1789 0.3242 0.1656
0.2179 0.3244 0.1560
0.2580 0.3253 0.1476
0.2954 0.3279 0.1363
0.3272 0.3311 0.1268
0.3541 0.3343 0.1283
0.3792 0.3360 0.1373
0.4046 0.3350 0.1475
0.4301 0.3336 0.1562
0.4598 0.3305 0.1711
0.4899 0.3269 0.1892
0.5152 0.3253 0.2026
0.5368 0.3253 0.2116
0.5572 0.3257 0.2189
0.5772 0.3263 0.2253
0.5971 0.3270 0.2315
0.6173 0.3277 0.2378
0.6379 0.3285 0.2442
0.6594 0.3290 0.2509
0.6810 0.3296 0.2578
0.7027 0.3302 0.2644
0.7242 0.3307 0.2709
0.7454 0.3314 0.2775
0.7662 0.3321 0.2839
0.7864 0.3330 0.2900
0.8061 0.3339 0.2957
0.8255 0.3348 0.3011
0.8445 0.3356 0.3063
0.8632 0.3364 0.3113
0.8815 0.3371 0.3162
0.9001 0.3376 0.3207
0.0988 0.3506 0.2007
0.1378 0.3523 0.1895
0.1761 0.3529 0.1774
0.2146 0.3529 0.1688
0.2533 0.3527 0.1621
0.2899 0.3536 0.1526
0.3250 0.3561 0.1384
0.3550 0.3595 0.1289
0.3799 0.3626 0.1309
0.4022 0.3640 0.1393
0.4252 0.3627 0.1501
0.4490 0.3608 0.1598
0.4720 0.3596 0.1691
0.4999 0.3563 0.1856
0.5271 0.3532 0.2026
0.5506 0.3518 0.2156
0.5715 0.3514 0.2247
0.5911 0.3517 0.2315
0.6107 0.3519 0.2382
0.6302 0.3524 0.2443
0.6504 0.3528 0.2505
0.6709 0.3533 0.2567
0.6916 0.3537 0.2628
0.7129 0.3540 0.2690
0.7342 0.3542 0.2753
0.7555 0.3543 0.2815
0.7764 0.3544 0.2877
0.7972 0.3545 0.2936
0.8176 0.3545 0.2994
0.8375 0.3546 0.3047
0.8569 0.3548 0.3097
0.8757 0.3550 0.3143
0.8946 0.3549 0.3184
0.1003 0.3776 0.2129
0.1382 0.3792 0.2021
0.1748 0.3799 0.1896
0.2120 0.3796 0.1808
0.2507 0.3793 0.1764
0.2877 0.3789 0.1699
0.3214 0.3796 0.1572
0.3523 0.3818 0.1410
0.3795 0.3845 0.1315
0.4025 0.3868 0.1336
0.4232 0.3876 0.1423
0.4436 0.3867 0.1531
0.4657 0.3849 0.1642
0.4871 0.3839 0.1732
0.5098 0.3824 0.1841
0.5364 0.3794 0.2007
0.5619 0.3768 0.2166
0.5845 0.3755 0.2285
0.6053 0.3750 0.2375
0.6248 0.3750 0.2444
0.6444 0.3751 0.2506
0.6643 0.3753 0.2568
0.6840 0.3755 0.2626
0.7041 0.3756 0.2684
0.7242 0.3756 0.2739
0.7445 0.3756 0.2794
0.7651 0.3753 0.2849
0.7857 0.3749 0.2905
0.8062 0.3745 0.2959
0.8266 0.3739 0.3012
0.8467 0.3734 0.3064
0.8664 0.3729 0.3114
0.8861 0.3723 0.3158
0.1022 0.4028 0.2246
0.1391 0.4041 0.2143
0.1741 0.4048 0.2017
0.2089 0.4045 0.1914
0.2468 0.4037 0.1880
0.2849 0.4028 0.1854
0.3182 0.4023 0.1771
0.3483 0.4029 0.1613
0.3760 0.4046 0.1438
0.4012 0.4066 0.1348
0.4229 0.4084 0.1370
0.4426 0.4089 0.1463
0.4609 0.4083 0.1574
0.4811 0.4069 0.1691
0.5021 0.4058 0.1790
0.5219 0.4054 0.1867
0.5449 0.4036 0.1988
0.5710 0.4007 0.2149
0.5958 0.3984 0.2294
0.6180 0.3971 0.2406
0.6388 0.3963 0.2491
0.6585 0.3960 0.2557
0.6779 0.3958 0.2617
0.6975 0.3955 0.2675
0.7171 0.3952 0.2730
0.7367 0.3949 0.2785
0.7562 0.3944 0.2835
0.7757 0.3940 0.2882
0.7954 0.3934 0.2929
0.8152 0.3926 0.2976
0.8351 0.3917 0.3024
0.8548 0.3908 0.3072
0.8750 0.3899 0.3117
0.1037 0.4260 0.2350
0.1396 0.4269 0.2252
0.1734 0.4276 0.2127
0.2061 0.4275 0.2012
0.2420 0.4262 0.1968
0.2807 0.4248 0.1968
0.3149 0.4238 0.1934
0.3446 0.4234 0.1828
0.3720 0.4239 0.1649
0.3977 0.4254 0.1472
0.4212 0.4270 0.1386
0.4417 0.4284 0.1411
0.4605 0.4286 0.1509
0.4776 0.4283 0.1624
0.4958 0.4275 0.1739
0.5161 0.4263 0.1844
0.5356 0.4257 0.1923
0.5554 0.4250 0.2001
0.5789 0.4228 0.2121
0.6046 0.4199 0.2270
0.6287 0.4176 0.2403
0.6509 0.4160 0.2507
0.6716 0.4149 0.2588
0.6912 0.4143 0.2652
0.7105 0.4137 0.2707
0.7300 0.4129 0.2763
0.7491 0.4122 0.2815
0.7682 0.4115 0.2864
0.7873 0.4107 0.2911
0.8062 0.4099 0.2952
0.8252 0.4091 0.2993
0.8442 0.4082 0.3034
0.8640 0.4072 0.3076
0.1050 0.4472 0.2443
0.1401 0.4476 0.2351
0.1730 0.4482 0.2232
0.2047 0.4483 0.2116
0.2377 0.4474 0.2047
0.2748 0.4457 0.2055
0.3110 0.4442 0.2058
0.3415 0.4432 0.2005
0.3683 0.4430 0.1881
0.3938 0.4435 0.1690
0.4179 0.4447 0.1513
0.4399 0.4460 0.1429
0.4592 0.4471 0.1456
0.4772 0.4472 0.1556
0.4935 0.4470 0.1673
0.5102 0.4465 0.1784
0.5294 0.4453 0.1891
0.5489 0.4442 0.1975
0.5673 0.4436 0.2033
0.5881 0.4422 0.2111
0.6119 0.4397 0.2230
0.6371 0.4368 0.2368
0.6608 0.4345 0.2488
0.6828 0.4326 0.2587
0.7036 0.4311 0.2666
0.7230 0.4301 0.2725
0.7420 0.4292 0.2780
0.7612 0.4282 0.2833
0.7803 0.4272 0.2883
0.7992 0.4263 0.2930
0.8180 0.4253 0.2973
0.8364 0.4245 0.3013
0.8552 0.4236 0.3048
0.1065 0.4666 0.2529
0.1410 0.4666 0.2445
0.1733 0.4671 0.2335
0.2038 0.4677 0.2219
0.2344 0.4672 0.2134
0.2693 0.4653 0.2126
0.3065 0.4634 0.2152
0.3380 0.4621 0.2140
0.3656 0.4614 0.2074
0.3904 0.4612 0.1933
0.4140 0.4617 0.1733
0.4366 0.4626 0.1556
0.4572 0.4636 0.1476
0.4754 0.4644 0.1501
0.4926 0.4643 0.1597
0.5085 0.4639 0.1714
0.5242 0.4635 0.1822
0.5420 0.4625 0.1925
0.5611 0.4613 0.2012
0.5796 0.4603 0.2069
0.5985 0.4593 0.2121
0.6201 0.4573 0.2203
0.6441 0.4547 0.2317
0.6688 0.4518 0.2443
0.6921 0.4495 0.2556
0.7143 0.4473 0.2652
0.7347 0.4458 0.2727
0.7542 0.4446 0.2787
0.7731 0.4435 0.2840
0.7923 0.4424 0.2892
0.8112 0.4413 0.2940
0.8298 0.4402 0.2986
0.8486 0.4393 0.3026
0.1084 0.4846 0.2612
0.1423 0.4843 0.2536
0.1739 0.4846 0.2435
0.2035 0.4855 0.2321
0.2322 0.4857 0.2225
0.2647 0.4839 0.2195
0.3005 0.4816 0.2225
0.3341 0.4797 0.2242
0.3624 0.4787 0.2216
0.3875 0.4781 0.2136
0.4108 0.4779 0.1977
0.4324 0.4784 0.1770
0.4536 0.4790 0.1596
0.4730 0.4798 0.1519
0.4904 0.4802 0.1542
0.5070 0.4800 0.1632
0.5225 0.4794 0.1744
0.5376 0.4790 0.1851
0.5542 0.4782 0.1949
0.5727 0.4770 0.2034
0.5913 0.4758 0.2096
0.6097 0.4748 0.2141
0.6296 0.4733 0.2196
0.6518 0.4712 0.2277
0.6759 0.4686 0.2389
0.7002 0.4658 0.2508
0.7234 0.4633 0.2614
0.7453 0.4611 0.2707
0.7657 0.4595 0.2780
0.7850 0.4582 0.2838
0.8040 0.4571 0.2891
0.8229 0.4559 0.2942
0.8420 0.4548 0.2987
0.1103 0.5017 0.2692
0.1436 0.5011 0.2622
0.1745 0.5011 0.2529
0.2032 0.5019 0.2419
0.2312 0.5026 0.2324
0.2608 0.5015 0.2265
0.2943 0.4991 0.2284
0.3292 0.4964 0.2317
0.3584 0.4948 0.2316
0.3843 0.4940 0.2277
0.4071 0.4935 0.2181
0.4290 0.4933 0.2007
0.4490 0.4938 0.1798
0.4693 0.4942 0.1629
0.4878 0.4947 0.1556
0.5045 0.4950 0.1575
0.5206 0.4946 0.1657
0.5358 0.4938 0.1765
0.5505 0.4934 0.1870
0.5665 0.4928 0.1964
0.5842 0.4918 0.2047
0.6028 0.4906 0.2115
0.6212 0.4895 0.2162
0.6402 0.4884 0.2201
0.6611 0.4867 0.2260
0.6836 0.4845 0.2345
0.7075 0.4819 0.2451
0.7314 0.4792 0.2561
0.7544 0.4766 0.2662
0.7762 0.4744 0.2753
0.7963 0.4727 0.2823
0.8156 0.4713 0.2882
0.8348 0.4701 0.2931
0.1119 0.5179 0.2767
0.1445 0.5171 0.2702
0.1748 0.5166 0.2615
0.2027 0.5173 0.2508
0.2296 0.5183 0.2408
0.2571 0.5180 0.2335
0.2886 0.5156 0.2333
0.3224 0.5126 0.2372
0.3536 0.5101 0.2390
0.3798 0.5090 0.2372
0.4036 0.5082 0.2320
0.4248 0.5078 0.2208
0.4455 0.5076 0.2021
0.4644 0.5082 0.1814
0.4839 0.5085 0.1653
0.5018 0.5089 0.1584
0.5179 0.5091 0.1600
0.5337 0.5085 0.1678
0.5488 0.5077 0.1781
0.5633 0.5073 0.1882
0.5788 0.5069 0.1974
0.5960 0.5061 0.2058
0.6142 0.5050 0.2128
0.6327 0.5040 0.2178
0.6518 0.5028 0.2217
0.6715 0.5014 0.2259
0.6927 0.4997 0.2321
0.7153 0.4975 0.2402
0.7390 0.4947 0.2503
0.7626 0.4919 0.2607
0.7853 0.4893 0.2705
0.8067 0.4871 0.2791
0.8272 0.4855 0.2856
0.1132 0.5333 0.2837
0.1451 0.5323 0.2775
0.1746 0.5314 0.2693
0.2018 0.5317 0.2588
0.2277 0.5328 0.2485
0.2533 0.5332 0.2400
0.2830 0.5312 0.2377
0.3153 0.5282 0.2410
0.3478 0.5250 0.2444
0.3747 0.5233 0.2442
0.3990 0.5223 0.2411
0.4208 0.5216 0.2347
0.4410 0.5213 0.2218
0.4607 0.5213 0.2026
0.4790 0.5220 0.1824
0.4980 0.5223 0.1673
0.5151 0.5227 0.1608
0.5310 0.5228 0.1622
0.5466 0.5222 0.1694
0.5617 0.5214 0.1792
0.5762 0.5209 0.1890
0.5915 0.5207 0.1982
0.6080 0.5201 0.2065
0.6259 0.5192 0.2137
0.6445 0.5181 0.2191
0.6636 0.5169 0.2232
0.6828 0.5156 0.2268
0.7030 0.5141 0.2311
0.7243 0.5122 0.2371
0.7469 0.5098 0.2450
0.7704 0.5071 0.2547
0.7935 0.5044 0.2646
0.8167 0.5019 0.2736
0.1139 0.5479 0.2901
0.1451 0.5466 0.2842
0.1740 0.5454 0.2763
0.2006 0.5452 0.2661
0.2256 0.5462 0.2555
0.2497 0.5473 0.2461
0.2775 0.5460 0.2420
0.3082 0.5432 0.2437
0.3404 0.5397 0.2480
0.3692 0.5372 0.2496
0.3936 0.5360 0.2476
0.4164 0.5351 0.2438
0.4367 0.5347 0.2363
0.4564 0.5345 0.2220
0.4752 0.5349 0.2026
0.4931 0.5356 0.1831
0.5117 0.5359 0.1690
0.5286 0.5362 0.1631
0.5441 0.5364 0.1643
0.5596 0.5358 0.1709
0.5747 0.5349 0.1801
0.5892 0.5345 0.1896
0.6043 0.5342 0.1987
0.6204 0.5339 0.2069
0.6380 0.5330 0.2141
0.6563 0.5319 0.2197
0.6752 0.5308 0.2241
0.6945 0.5294 0.2278
0.7142 0.5280 0.2311
0.7345 0.5264 0.2354
0.7561 0.5244 0.2414
0.7786 0.5221 0.2494
0.8025 0.5196 0.2580
0.1138 0.5617 0.2958
0.1445 0.5602 0.2900
0.1728 0.5588 0.2824
0.1989 0.5583 0.2725
0.2233 0.5591 0.2619
0.2471 0.5601 0.2527
0.2720 0.5600 0.2461
0.3012 0.5576 0.2460
0.3324 0.5543 0.2500
0.3632 0.5510 0.2534
0.3881 0.5495 0.2529
0.4111 0.5486 0.2501
0.4327 0.5479 0.2456
0.4518 0.5476 0.2369
0.4711 0.5476 0.2216
0.4893 0.5483 0.2022
0.5070 0.5490 0.1837
0.5252 0.5493 0.1707
0.5418 0.5497 0.1652
0.5572 0.5498 0.1662
0.5727 0.5492 0.1720
0.5879 0.5483 0.1807
0.6023 0.5478 0.1899
0.6173 0.5476 0.1989
0.6330 0.5473 0.2068
0.6503 0.5465 0.2141
0.6683 0.5456 0.2200
0.6870 0.5445 0.2246
0.7065 0.5431 0.2284
0.7261 0.5418 0.2315
0.7459 0.5403 0.2349
0.7666 0.5387 0.2395
0.7887 0.5369 0.2451
0.1130 0.5750 0.3007
0.1431 0.5734 0.2951
0.1709 0.5718 0.2877
0.1967 0.5711 0.2782
0.2206 0.5716 0.2676
0.2435 0.5728 0.2579
0.2667 0.5735 0.2501
0.2944 0.5717 0.2483
0.3245 0.5686 0.2512
0.3555 0.5652 0.2558
0.3828 0.5629 0.2571
0.4056 0.5619 0.2550
0.4276 0.5612 0.2517
0.4478 0.5607 0.2465
0.4666 0.5606 0.2365
0.4855 0.5608 0.2205
0.5032 0.5616 0.2015
0.5206 0.5623 0.1840
0.5385 0.5627 0.1719
0.5549 0.5630 0.1668
0.5703 0.5631 0.1675
0.5858 0.5625 0.1727
0.6011 0.5616 0.1810
0.6157 0.5611 0.1900
0.6306 0.5609 0.1987
0.6461 0.5607 0.2064
0.6631 0.5600 0.2137
0.6809 0.5592 0.2199
0.6992 0.5583 0.2246
0.7186 0.5571 0.2285
0.7384 0.5557 0.2319
0.7581 0.5543 0.2349
0.7783 0.5531 0.2381
0.1115 0.5878 0.3051
0.1412 0.5862 0.2995
0.1686 0.5845 0.2924
0.1941 0.5836 0.2833
0.2178 0.5840 0.2730
0.2400 0.5853 0.2629
0.2618 0.5865 0.2540
0.2879 0.5854 0.2507
0.3170 0.5827 0.2523
0.3474 0.5795 0.2569
0.3768 0.5765 0.2601
0.4003 0.5752 0.2592
0.4222 0.5744 0.2561
0.4433 0.5738 0.2525
0.4624 0.5735 0.2464
0.4809 0.5734 0.2352
0.4993 0.5739 0.2189
0.5168 0.5748 0.2003
0.5340 0.5756 0.1838
0.5517 0.5759 0.1726
0.5680 0.5763 0.1678
0.5834 0.5764 0.1683
0.5991 0.5758 0.1733
0.6145 0.5750 0.1811
0.6292 0.5746 0.1897
0.6441 0.5744 0.1981
0.6596 0.5743 0.2057
0.6763 0.5737 0.2131
0.6939 0.5729 0.2195
0.7120 0.5721 0.2242
0.7310 0.5710 0.2282
0.7508 0.5697 0.2318
0.7707 0.5684 0.2346
0.1098 0.6003 0.3089
0.1391 0.5986 0.3035
0.1661 0.5970 0.2966
0.1914 0.5961 0.2882
0.2150 0.5963 0.2782
0.2368 0.5976 0.2678
0.2580 0.5990 0.2587
0.2820 0.5988 0.2536
0.3099 0.5966 0.2539
0.3397 0.5936 0.2577
0.3695 0.5906 0.2620
0.3953 0.5885 0.2627
0.4169 0.5876 0.2601
0.4379 0.5870 0.2568
0.4582 0.5864 0.2526
0.4765 0.5862 0.2455
0.4948 0.5863 0.2334
0.5129 0.5869 0.2169
0.5301 0.5879 0.1989
0.5473 0.5888 0.1833
0.5648 0.5892 0.1730
0.5812 0.5896 0.1686
0.5967 0.5897 0.1691
0.6126 0.5893 0.1737
0.6280 0.5886 0.1808
0.6430 0.5882 0.1889
0.6581 0.5880 0.1973
0.6735 0.5878 0.2049
0.6898 0.5873 0.2120
0.7073 0.5865 0.2184
0.7250 0.5858 0.2233
0.7435 0.5849 0.2273
0.7632 0.5837 0.2307
0.1079 0.6126 0.3126
0.1369 0.6110 0.3075
0.1636 0.6095 0.3008
0.1888 0.6085 0.2929
0.2123 0.6086 0.2836
0.2338 0.6098 0.2731
0.2548 0.6112 0.2639
0.2767 0.6119 0.2569
0.3033 0.6103 0.2559
0.3323 0.6076 0.2587
0.3619 0.6046 0.2631
0.3898 0.6019 0.2655
0.4120 0.6007 0.2639
0.4326 0.6001 0.2604
0.4531 0.5995 0.2569
0.4723 0.5991 0.2521
0.4903 0.5991 0.2441
0.5084 0.5994 0.2312
0.5263 0.6002 0.2146
0.5434 0.6013 0.1973
0.5606 0.6021 0.1827
0.5782 0.6026 0.1733
0.5946 0.6030 0.1692
0.6103 0.6032 0.1694
0.6262 0.6029 0.1734
0.6418 0.6023 0.1798
0.6570 0.6019 0.1876
0.6722 0.6016 0.1958
0.6875 0.6013 0.2034
0.7035 0.6008 0.2101
0.7207 0.6000 0.2165
0.7382 0.5992 0.2217
0.7564 0.5985 0.2253
0.1058 0.6250 0.3162
0.1346 0.6235 0.3113
0.1610 0.6220 0.3050
0.1861 0.6211 0.2975
0.2097 0.6210 0.2887
0.2311 0.6220 0.2785
0.2514 0.6235 0.2686
0.2718 0.6248 0.2605
0.2972 0.6237 0.2582
0.3253 0.6213 0.2600
0.3544 0.6185 0.2638
0.3829 0.6157 0.2674
0.4072 0.6139 0.2673
0.4276 0.6132 0.2640
0.4479 0.6127 0.2603
0.4676 0.6122 0.2565
0.4860 0.6121 0.2511
0.5038 0.6122 0.2421
0.5220 0.6127 0.2286
0.5397 0.6137 0.2122
0.5568 0.6148 0.1955
0.5741 0.6156 0.1818
0.5916 0.6160 0.1730
0.6080 0.6165 0.1691
0.6239 0.6166 0.1690
0.6399 0.6164 0.1722
0.6556 0.6159 0.1779
0.6709 0.6154 0.1855
0.6862 0.6150 0.1935
0.7015 0.6147 0.2007
0.7174 0.6142 0.2074
0.7342 0.6134 0.2138
0.7517 0.6127 0.2187
0.1036 0.6375 0.3198
0.1323 0.6360 0.3152
0.1585 0.6347 0.3092
0.1833 0.6337 0.3021
0.2070 0.6334 0.2938
0.2285 0.6343 0.2838
0.2483 0.6358 0.2735
0.2676 0.6375 0.2643
0.2915 0.6370 0.2605
0.3185 0.6350 0.2614
0.3471 0.6323 0.2644
0.3754 0.6297 0.2682
0.4019 0.6273 0.2696
0.4229 0.6265 0.2673
0.4426 0.6260 0.2633
0.4624 0.6256 0.2596
0.4817 0.6253 0.2553
0.4995 0.6254 0.2491
0.5172 0.6256 0.2392
0.5354 0.6262 0.2253
0.5530 0.6273 0.2090
0.5701 0.6283 0.1929
0.5874 0.6291 0.1800
0.6050 0.6295 0.1717
0.6215 0.6299 0.1678
0.6376 0.6300 0.1675
0.6535 0.6298 0.1699
0.6692 0.6294 0.1751
0.6848 0.6288 0.1823
0.7002 0.6283 0.1900
0.7156 0.6280 0.1973
0.7313 0.6276 0.2041
0.7481 0.6269 0.2098
0.1015 0.6500 0.3235
0.1300 0.6486 0.3192
0.1559 0.6474 0.3133
0.1806 0.6464 0.3065
0.2043 0.6460 0.2986
0.2259 0.6466 0.2890
0.2455 0.6481 0.2784
0.2651 0.6496 0.2696
0.2861 0.6502 0.2631
0.3121 0.6486 0.2628
0.3400 0.6461 0.2651
0.3679 0.6436 0.2685
0.3950 0.6413 0.2709
0.4182 0.6399 0.2700
0.4376 0.6394 0.2661
0.4570 0.6391 0.2620
0.4765 0.6387 0.2580
0.4950 0.6387 0.2532
0.5126 0.6388 0.2460
0.5304 0.6392 0.2353
0.5485 0.6398 0.2210
0.5660 0.6408 0.2047
0.5832 0.6419 0.1893
0.6007 0.6425 0.1771
0.6183 0.6429 0.1693
0.6349 0.6432 0.1655
0.6512 0.6433 0.1649
0.6672 0.6432 0.1670
0.6830 0.6428 0.1716
0.6987 0.6423 0.1782
0.7143 0.6418 0.1858
0.7298 0.6415 0.1932
0.7457 0.6412 0.1994
0.0995 0.6626 0.3273
0.1279 0.6613 0.3233
0.1535 0.6600 0.3175
0.1780 0.6590 0.3109
0.2016 0.6585 0.3033
0.2234 0.6589 0.2941
0.2429 0.6603 0.2834
0.2617 0.6621 0.2739
0.2813 0.6633 0.2661
0.3060 0.6622 0.2644
0.3332 0.6600 0.2659
0.3607 0.6576 0.2685
0.3875 0.6554 0.2713
0.4126 0.6536 0.2717
0.4327 0.6529 0.2686
0.4517 0.6526 0.2640
0.4709 0.6523 0.2598
0.4900 0.6521 0.2555
0.5080 0.6521 0.2499
0.5254 0.6523 0.2418
0.5433 0.6527 0.2301
0.5614 0.6534 0.2155
0.5789 0.6544 0.1996
0.5961 0.6554 0.1848
0.6140 0.6560 0.1733
0.6317 0.6563 0.1659
0.6485 0.6567 0.1624
0.6649 0.6568 0.1617
0.6810 0.6568 0.1634
0.6969 0.6565 0.1674
0.7127 0.6561 0.1736
0.7284 0.6556 0.1811
0.7441 0.6553 0.1876
0.0977 0.6752 0.3312
0.1259 0.6738 0.3274
0.1513 0.6726 0.3218
0.1756 0.6717 0.3153
0.1991 0.6711 0.3078
0.2210 0.6713 0.2992
0.2406 0.6726 0.2886
0.2588 0.6745 0.2783
0.2770 0.6763 0.2694
